src/assets/outline/CloseCircle.svg

<svg width="24" height="24" viewBox="0 0 24 24"  xmlns="http://www.w3.org/2000/svg">
<path d="M12 22.75C6.07 22.75 1.25 17.93 1.25 12C1.25 6.07 6.07 1.25 12 1.25C17.93 1.25 22.75 6.07 22.75 12C22.75 17.93 17.93 22.75 12 22.75ZM12 2.75C6.9 2.75 2.75 6.9 2.75 12C2.75 17.1 6.9 21.25 12 21.25C17.1 21.25 21.25 17.1 21.25 12C21.25 6.9 17.1 2.75 12 2.75Z" />
<path d="M9.16986 15.5804C8.97986 15.5804 8.78986 15.5104 8.63986 15.3604C8.34986 15.0704 8.34986 14.5904 8.63986 14.3004L14.2999 8.64035C14.5899 8.35035 15.0699 8.35035 15.3599 8.64035C15.6499 8.93035 15.6499 9.41035 15.3599 9.70035L9.69986 15.3604C9.55986 15.5104 9.35986 15.5804 9.16986 15.5804Z" />
<path d="M14.8299 15.5804C14.6399 15.5804 14.4499 15.5104 14.2999 15.3604L8.63986 9.70035C8.34986 9.41035 8.34986 8.93035 8.63986 8.64035C8.92986 8.35035 9.40986 8.35035 9.69986 8.64035L15.3599 14.3004C15.6499 14.5904 15.6499 15.0704 15.3599 15.3604C15.2099 15.5104 15.0199 15.5804 14.8299 15.5804Z" />
</svg>

<?xml version="1.0" encoding="UTF-8"?>
<svg width="24" height="24" viewBox="0 0 24 24" xmlns="http://www.w3.org/2000/svg">
 <path d="m12 22.75c-5.93 0-10.75-4.82-10.75-10.75s4.82-10.75 10.75-10.75 10.75 4.82 10.75 10.75-4.82 10.75-10.75 10.75zm0-20c-5.1 0-9.25 4.15-9.25 9.25s4.15 9.25 9.25 9.25 9.25-4.15 9.25-9.25-4.15-9.25-9.25-9.25z"/>
 <path d="m9.1699 15.58c-0.19 0-0.38-0.07-0.53-0.22-0.29-0.29-0.29-0.77 0-1.06l5.66-5.66c0.29-0.29 0.77-0.29 1.06 0s0.29 0.77 0 1.06l-5.66 5.66c-0.14 0.15-0.34 0.22-0.53 0.22z"/>
 <path d="m14.83 15.58c-0.19 0-0.38-0.07-0.53-0.22l-5.66-5.66c-0.29-0.29-0.29-0.77 0-1.06s0.77-0.29 1.06 0l5.66 5.66c0.29 0.29 0.29 0.77 0 1.06-0.15 0.15-0.34 0.22-0.53 0.22z"/>
</svg>
